/* XPM */
static char * code_xpm[] = {
"32 32 228 2",
"!! c #FFFFFF",
"!" c #FBFBFB",
"!# c #646464",
"!$ c #121212",
"!% c #FAFAFA",
"!& c #FCFCFC",
"!' c #FEFEFE",
"!( c #FDFDFD",
"!) c #353535",
"!* c #6D6D6D",
"!+ c #E5E5E5",
"!, c #272727",
"!- c #B9B9B9",
"!. c #C1C1C1",
"!/ c #000000",
"!0 c #949494",
"!1 c #F9F9F9",
"!2 c #CCCCCC",
"!3 c #B3B3B3",
"!4 c #C8C8C8",
"!5 c #F0F0F0",
"!6 c #979797",
"!7 c #2B2B2B",
"!8 c #CFCFCF",
"!9 c #5E5E5E",
"!: c #030303",
"!; c #C0C0C0",
"!< c #6B6B6B",
"!= c #040404",
"!> c #D6D6D6",
"!? c #454545",
"!@ c #EEEEEE",
"!A c #CDCDCD",
"!B c #898989",
"!C c #343434",
"!D c #686868",
"!E c #D8D8D8",
"!F c #414141",
"!G c #B4B4B4",
"!H c #F8F8F8",
"!I c #181818",
"!J c #2C2C2C",
"!K c #131313",
"!L c #6F6F6F",
"!M c #0B0B0B",
"!N c #EBEBEB",
"!O c #656565",
"!P c #797979",
"!Q c #F7F7F7",
"!R c #F5F5F5",
"!S c #525252",
"!T c #EDEDED",
"!U c #E6E6E6",
"!V c #929292",
"!W c #060606",
"!X c #BEBEBE",
"!Y c #151515",
"!Z c #636363",
"![ c #A3A3A3",
"!\ c #434343",
"!] c #8B8B8B",
"!^ c #989898",
"!_ c #959595",
"!` c #050505",
"!a c #6E6E6E",
"!b c #9B9B9B",
"!c c #020202",
"!d c #363636",
"!e c #171717",
"!f c #A0A0A0",
"!g c #222222",
"!h c #3C3C3C",
"!i c #ECECEC",
"!j c #AEAEAE",
"!k c #848484",
"!l c #161616",
"!m c #4B4B4B",
"!n c #A2A2A2",
"!o c #333333",
"!p c #C4C4C4",
"!q c #D3D3D3",
"!r c #D2D2D2",
"!s c #C7C7C7",
"!t c #575757",
"!u c #666666",
"!v c #A4A4A4",
"!w c #777777",
"!x c #6C6C6C",
"!y c #0E0E0E",
"!z c #717171",
"!{ c #1D1D1D",
"!| c #B5B5B5",
"!} c #4F4F4F",
"!~ c #4C4C4C",
"!¡ c #E0E0E0",
"!¢ c #D0D0D0",
"!£ c #8F8F8F",
"!¤ c #3E3E3E",
"!¥ c #3B3B3B",
"!¦ c #111111",
"!§ c #5C5C5C",
"!¨ c #505050",
"!© c #DADADA",
"!ª c #C3C3C3",
"!« c #0D0D0D",
"!¬ c #A5A5A5",
"!­ c #101010",
"!® c #1B1B1B",
"!¯ c #ABABAB",
"!° c #B6B6B6",
"!± c #B1B1B1",
"!² c #1A1A1A",
"!³ c #5D5D5D",
"!´ c #858585",
"!µ c #7D7D7D",
"!¶ c #424242",
"!· c #0F0F0F",
"!¸ c #010101",
"!¹ c #F2F2F2",
"!º c #535353",
"!» c #ACACAC",
"!¼ c #696969",
"!½ c #070707",
"!¾ c #5F5F5F",
"!¿ c #3A3A3A",
"!À c #BBBBBB",
"!Á c #9E9E9E",
"!Â c #2E2E2E",
"!Ã c #787878",
"!Ä c #242424",
"!Å c #565656",
"!Æ c #999999",
"!Ç c #141414",
"!È c #1F1F1F",
"!É c #4E4E4E",
"!Ê c #626262",
"!Ë c #F6F6F6",
"!Ì c #B0B0B0",
"!Í c #ADADAD",
"!Î c #9C9C9C",
"!Ï c #8E8E8E",
"!Ð c #868686",
"!Ñ c #4D4D4D",
"!Ò c #DCDCDC",
"!Ó c #CECECE",
"!Ô c #313131",
"!Õ c #484848",
"!Ö c #474747",
"!× c #767676",
"!Ø c #838383",
"!Ù c #2D2D2D",
"!Ú c #494949",
"!Û c #E8E8E8",
"!Ü c #F3F3F3",
"!Ý c #DFDFDF",
"!Þ c #616161",
"!ß c #555555",
"!à c #8C8C8C",
"!á c #DDDDDD",
"!â c #BABABA",
"!ã c #E1E1E1",
"!ä c #323232",
"!å c #9F9F9F",
"!æ c #9D9D9D",
"!ç c #3F3F3F",
"!è c #303030",
"!é c #888888",
"!ê c #2A2A2A",
"!ë c #727272",
"!ì c #090909",
"!í c #282828",
"!î c #B2B2B2",
"!ï c #373737",
"!ð c #292929",
"!ñ c #585858",
"!ò c #E3E3E3",
"!ó c #545454",
"!ô c #D9D9D9",
"!õ c #464646",
"!ö c #515151",
"!÷ c #2F2F2F",
"!ø c #808080",
"!ù c #919191",
"!ú c #262626",
"!û c #202020",
"!ü c #F1F1F1",
"!ý c #3D3D3D",
"!þ c #939393",
"!ÿ c #606060",
""! c #7C7C7C",
""" c #707070",
""# c #B8B8B8",
""$ c #EAEAEA",
""% c #080808",
""& c #191919",
""' c #252525",
""( c #757575",
"") c #878787",
""* c #0C0C0C",
""+ c #1E1E1E",
"", c #E4E4E4",
""- c #C9C9C9",
"". c #383838",
""/ c #D1D1D1",
""0 c #676767",
""1 c #E7E7E7",
""2 c #D7D7D7",
""3 c #595959",
""4 c #A7A7A7",
""5 c #D5D5D5",
""6 c #4A4A4A",
""7 c #737373",
""8 c #8D8D8D",
""9 c #BFBFBF",
"": c #5B5B5B",
""; c #7F7F7F",
""< c #6A6A6A",
""= c #C6C6C6",
""> c #BDBDBD",
""? c #1C1C1C",
""@ c #C2C2C2",
""A c #AAAAAA",
""B c #212121",
""C c #404040",
""D c #C5C5C5",
""E c #909090",
""F c #F4F4F4",
""G c #393939",
"!!!!!"!!!#!$!%!&!'!!!(!&!)!*!!!"!!!(!!!+!,!-!!!&!!!!!!!!!!!!!!!!",
"!!!!!&!!!.!/!0!!!1!!!&!!!2!/!3!!!4!!!5!!!6!7!8!!!(!!!!!!!!!!!!!!",
"!!!!!!!(!!!9!:!;!!!%!'!&!!!<!=!>!?!@!A!B!!!C!D!E!!!(!!!!!!!!!!!!",
"!!!!!!!'!(!"!F!/!G!!!!!%!(!H!I!J!K!L!'!M!N!O!D!P!Q!(!!!!!!!!!!!!",
"!!!!!!!!!'!'!R!S!/!*!T!!!"!U!V!/!/!W!X!Y!Z![!\!]!^!!!"!!!!!!!!!!",
"!!!!!!!(!&!"!'!!!_!`!`!a!;!X!b!^!/!c!M!d!e!f!g!G!h!"!'!!!!!!!!!!",
"!!!!!!!!!!!!!!!!!i!8!L!/!/!)!9!j!k!/!/!l!h!m!Y!n!o!p!!!(!!!!!!!!",
"!!!'!'!q!-!r!s!r!t!S!u!v!t!/!/!/!w!x!/!y!z!{!/!|!}!~!¡!!!(!!!!!!",
"!!!'!(!¢!£!¤!¥!¦!§!k!9!¨!©!ª!K!=!«!¬!¤!­!E!9!/!®!$!/!¯!!!(!!!!!!",
"!!!!!"!!!°!±!_!²!¦!{!³!]!B!r!´!/!­!a!µ!/!¶!ª!·!²!c!¸!x!¹!'!'!!!!",
"!!!&!!!ª!º!©!»!¼!½!/!/!/!/!¾!t!:!/!¸!u!h!/!m!^!¿!~!/!¶!À!!!(!!!!",
"!&!!!Á!/!Â!!!B!l!Ã!O!Ä!/!Å!Æ!/!/!M!d!/!Ç!c!/!È!®!É!¿!y!Ê!1!Ë!!!!",
"!!!Ì!È!Í!!!N!®!/!W!~!Î!Ï!Ð!µ!~!m!Ñ!Ê!W!/!/!:!/!/!`!Ã!·!M!¼!Q!!!'",
"!Ë!L!Ò!!!Ó!7!/!Ô!Õ!Ö!×!T!0!Ø!Ø!_!X!9!Ù!/!¸!/!¸!W!/!J!Ú!/!®!Û!!!'",
"!Ü!'!Ý!¾!`!®!Þ!ß!¨!à!á!!!©!â!ã!Ï!¥!k!Þ!$!c!/!/!¦!C!M!$!ä!,!å!!!(",
"!!!æ!ç!Ú!¸!²!è!¼!r!!!!!é!o!Ï!ê!ë!Æ!$!«!l!/!ì!:!/!·!0!Ú!e!í!9!"!!",
"!¬!F!î!{!¸!l!ï!Ú!5!^!0!/!<!ð!/!/!o!q!g!¸!ì!®!ñ!/!c!»!ò!d!`!~!H!'",
"!*!+!,!/!/!ó!Z!ô!8!W!]!Ô!Î!6!õ!y!/!q!ö!/!C!­!\!÷!È!h!õ!Â!e!p!!!%",
"!&!U!Ç!ó!È!z!ø!ù!£!/!e!°!4!S!{!:!½!¼!±!ú!K!F!/!}!d!È!ú!/!û!×!!!!",
"!!!ü!ý!Ù!c!t!/!þ!ë!¸!È!Å!ÿ!½!/!/!`!/!C!|"!!Æ!Ñ!/""!ê!,!ú!ð!l!u"#",
"!'"$"%!ö!/!Ê!Ø"#!Þ!c!K!f!["&!²!c!/!¸!/"'""!J"(!õ!/")!)!È!u"*!¸!~",
"!!!ü!¦!Í!ì!ç!p!=!¼!/!/!¶!±!Õ"+!`!/!W!Ý!>",!6!e!ë!C!¦!P!e!í!*!O!ð",
"!!!H"'"-".!¾!Ã!²"/!#!:"0")!/!/!/!«!D!Ì"1!!!!"2!J!O!{".!ø!g!¿"3!e",
"!'!"!d"4"5!÷"6!Û"7!°!o!$!}!­!è!~"3!Ù"8!Ý!&!%!!"9!Ô!k!c"&!º!~!¸!K",
"!"!!":";!Ë!/!:!w!/!É!e!·!*!Î!ó!g!/!/!i!!!(!!!&!!!Î!è"<!/!¸!Õ!K!¾",
"!(!!"=">!U!9!ç!M!/"?"@!ç!­!à!/!/!/!c"A",!(!'!'!ò!æ!S!L"B!/!/!m!@",
"!!!!!(!¹"-!{!¿!Þ!Õ!/!t"C!/!¾!#!d!e!c!/!|!!!(!!!5!("D!S!ê!c!t!Ü!!",
"!!!!!"!!"E!Ã!¨!æ!à!#!/!h!e"*!u!²!W!¸!/!r!Ü!"!!!!!!!j!}!V!Z!&!!!(",
"!!!!!'!'!j!&!!!!!ü"F!ý!/!Ä!¸!I!·!/!c!¸!7!å!Ë!'!(!"!V">!E"$!!!(!!",
"!!!!!!!!!!!!!&!&!!!!!H!Ã!/!:!/!`!/!¸!/!ì!ü!!!'!!!1!R!!!!!!!'!!!!",
"!!!!!!!!!(!'!!!!!'!'!!!!"E!/!:!/!/!c!/!{!R!!!'!!!!!!!(!'!'!!!!!!",
"!!!!!!!!!!!!!!!!!!!!!'!%!!!P!/!:!/!:!/"G!!!'!!!!!!!'!!!!!!!!!!!!",
};
